X:1
T:Title
%%score { ( 1 3 4 ) | ( 2 5 ) }
L:1/8
M:6/8
K:Bb
V:1 treble nm="Grand Piano"
V:3 treble 
V:4 treble 
V:2 bass 
V:5 bass 
V:1
 z3 z2[Q:1/4=84] [DF] | [Fd]>[Ec][DB] [DB][CA][DB] | c>BG [EG]/[DF]-<[DF]F/ | B>BB BAB | c3- c2 c | %5
 [Fd]>[Fc][Fd] [Ge][Fd][Fc] | [GB]>[FA]B cBG | F>BB ABc |[M:5/8] [DB]-[DB]- [DB]3 |[M:1/8] [DF] | %10
[M:3/4] [Fd]4 z2 | [DB]6[K:bass][K:treble] | B4 z2 | [DF]6 | [DB]4[K:bass][K:treble] z2 | %15
 [Fd]4 z2 | [EA]4 [EG][EA] |[M:5/8] B-B- B3 |] %18
V:2
 z3 z2 [B,,B,] | [B,,B,]>[B,,B,][B,,F,] [B,,F,][B,,F,][B,,F,] | %2
 [E,G,E]>[E,G,E][E,B,E] [B,,B,]/[B,,B,]-<[B,,B,][B,D]/ | %3
 [G,B,D]>[G,B,D][G,B,D] [G,B,D][G,B,D][G,B,D] | [F,A,F]3- [F,A,F]2 [F,A,F] | %5
 [B,,B,]>[B,,A,][B,,B,] [B,,B,][C,B,][D,B,] | [E,B,]>[E,B,][E,G,E] [E,G,E][E,G,E][E,B,E] | %7
 [F,B,D]>[F,B,D][F,B,D] [F,CE][F,B,E][F,A,E] |[M:5/8] [B,,B,]-[B,,B,]- [B,,B,]3 |[M:1/8] [B,,B,] | %10
[M:3/4] [B,,B,]>B,, .B,,2[K:treble] =EF | [B,,F,]>B,, B,, B,,2 D | E->[E,E-] [E,E]2[K:treble] FE | %13
 B,,>B,, B,, B,,2 D/D/ | [B,,F,]>B,, .B,,2 CD | [B,,B,]>B,, .B,,2 ED | F,>F, F,F, F,F, | %17
[M:5/8] [B,,F,]>[B,,F,][B,,G,] [B,,F,]2 |] %18
V:3
 x6 | x6 | x6 | x6 | x6 | x6 | x6 | x6 |[M:5/8] x5 |[M:1/8] x |[M:3/4] z z/ B,/ .B,2 _d=d | %11
 z z/[K:bass] F,/ F, F,2[K:treble] B | z z/ G,/ .G,2 AG | B,>B, B, B,2 F/F/ | %14
 z z/[K:bass] F,/ .F,2[K:treble] AB | z z/ B,/ .B,2 cB | x6 |[M:5/8] D>DE D2 |] %18
V:4
 x6 | x6 | x6 | x6 | x6 | x6 | x6 | x6 |[M:5/8] x5 |[M:1/8] x |[M:3/4] z2 z .B,3 | %11
 x3/2[K:bass] x7/2[K:treble] x | z2 z .G,3 | x6 | z2[K:bass] z .F,3[K:treble] | z2 z .B,3 | x6 | %17
[M:5/8] x5 |] %18
V:5
 x6 | x6 | x6 | x6 | x6 | x6 | x6 | x6 |[M:5/8] x5 |[M:1/8] x |[M:3/4] z2 z .B,,3[K:treble] | x6 | %12
 [E,G,]2 z .E,3[K:treble] | x6 | z2 z .B,,3 | z2 z .B,,3 | x6 |[M:5/8] x5 |] %18

